!!!SOCIAL_FUNCTION:	love songs
!!!PDT:	1943
!!!OTL: No_80_I_Am_Going_to_Stay_at_Home.krn
!!!REG: British Columbia
**kern
*staff1
=1-
*clefG2
*k[f#c#g#]
*M2/4
4r
8.r
16e/
=2
4e/
8e/L
8e/J
=3
4.a/
8cc#\
=4
4b\
4a/
=5
8a/L
8f#/J
8f#/L
8f#/J
=6
2e/
=7
4A/
4r
=8
8a/L
8a/J
8a/L
8a/J
=9
4.a/
8d/
=10
8c#/L
[8A/J
4A/]
=11
8e/L
8e/J
8e/L
8c#/J
=12
4e/
8.c#/L
16c#/Jk
=13
8d/L
[8c#/J
4c#/]
=14
4A/
4r
=15
8e/L
8e/J
8a/L
8f#/J
=16
8f#/L
[8e/J
4e/]
=17
2A/
==
*-
